public/file-logo.svg

<?xml version="1.0" encoding="utf-8"?><!-- Uploaded to: SVG Repo, www.svgrepo.com, Generator: SVG Repo Mixer Tools -->
<svg width="800px" height="800px" viewBox="0 0 24 24" fill="none" xmlns="http://www.w3.org/2000/svg">
<path d="M13 3H8.2C7.0799 3 6.51984 3 6.09202 3.21799C5.71569 3.40973 5.40973 3.71569 5.21799 4.09202C5 4.51984 5 5.0799 5 6.2V17.8C5 18.9201 5 19.4802 5.21799 19.908C5.40973 20.2843 5.71569 20.5903 6.09202 20.782C6.51984 21 7.0799 21 8.2 21H12M13 3L19 9M13 3V7.4C13 7.96005 13 8.24008 13.109 8.45399C13.2049 8.64215 13.3578 8.79513 13.546 8.89101C13.7599 9 14.0399 9 14.6 9H19M19 9V14.5M9 17H11.5M9 13H15M9 9H10M15.5 18.5H20.5" stroke="#000000" stroke-width="2" stroke-linecap="round" stroke-linejoin="round"/>
</svg>

<svg xmlns="http://www.w3.org/2000/svg" width="800" height="800" fill="none" viewBox="0 0 24 24"><path stroke="#000" stroke-linecap="round" stroke-linejoin="round" stroke-width="2" d="M13 3H8.2c-1.12 0-1.68 0-2.108.218a2 2 0 0 0-.874.874C5 4.52 5 5.08 5 6.2v11.6c0 1.12 0 1.68.218 2.108a2 2 0 0 0 .874.874C6.52 21 7.08 21 8.2 21H12m1-18 6 6m-6-6v4.4c0 .56 0 .84.109 1.054a1 1 0 0 0 .437.437C13.76 9 14.04 9 14.6 9H19m0 0v5.5M9 17h2.5M9 13h6M9 9h1m5.5 9.5h5"/></svg>
